X:581
T:Dowd's Favourite
R:Reel
Z: Piano Box Version by Martin Fleischmann
H: Created 2014-05-04 /  Last Modified 2014-05-06
M: 4/4
L: 1/8
K: Gdor
"gm"DGGA BAGF|"dm"D~F3 CFAF|"gm"DGGA BABd|"dm"cAfc "gm"AGGF|
"gm"DGGA BABF|"dm"D~F3 dFcF|"gm"DGGA BABd|"dm"cAfc "gm"AGGA||
"Bb"B2dB FBdB| DFBd "F"cAFA|"Bb"B2dB fBdB|"F"cAFA "gm"BGGA|
"Bb"BABd "F"c=Bcd|"Bb"BABd "F"cAFA|"gm"GBAc Bbag|"dm"fdcA "gm"BGG2||
"gm"g~d3 gbag|"dm"f~c3 fgaf|"gm"g~d3 gbag|"dm"fdcA "gm"BGBd|
"gm"g2gf gbag|"dm"f2fg fdcA|"gm"GBAc Bbag|"dm"fdcA "gm"BGGF||
|"var"GABc dgge|fdcA BGGF|z8|z8|

